X: 12885
T: Festival Of Tears, The
R: jig
M: 6/8
K: Eminor
D|EBB BAB|AGG AGF|GAB/c/ dAB|AGF E2D|EBB BAB|AGG AGF|GAB/c/ dAB|A{BA}FE E2D|
EFA Bc/d/e|fef dFF|AAB/c/ dcd|ecA c2E|F/G/AB ede|fde dFF|AAB/c/ dGA|AGF E2|

